icons/circle/48/eolie.svg

<svg version="1.1" viewBox="0 0 48 48" xmlns="http://www.w3.org/2000/svg">
 <defs>
  <linearGradient id="linearGradient3764" x1="1" x2="47" gradientTransform="matrix(0 -1 1 0 -1.5e-6 48)" gradientUnits="userSpaceOnUse">
   <stop style="stop-color:#d5edf3" offset="0"/>
   <stop style="stop-color:#e5f4f7" offset="1"/>
  </linearGradient>
 </defs>
 <path d="m36.31 5c5.859 4.062 9.688 10.831 9.688 18.5 0 12.426-10.07 22.5-22.5 22.5-7.669 0-14.438-3.828-18.5-9.688 1.037 1.822 2.306 3.499 3.781 4.969 4.085 3.712 9.514 5.969 15.469 5.969 12.703 0 23-10.298 23-23 0-5.954-2.256-11.384-5.969-15.469-1.469-1.475-3.147-2.744-4.969-3.781zm4.969 3.781c3.854 4.113 6.219 9.637 6.219 15.719 0 12.703-10.297 23-23 23-6.081 0-11.606-2.364-15.719-6.219 4.16 4.144 9.883 6.719 16.219 6.719 12.703 0 23-10.298 23-23 0-6.335-2.575-12.06-6.719-16.219z" style="opacity:.05"/>
 <path d="m41.28 8.781c3.712 4.085 5.969 9.514 5.969 15.469 0 12.703-10.297 23-23 23-5.954 0-11.384-2.256-15.469-5.969 4.113 3.854 9.637 6.219 15.719 6.219 12.703 0 23-10.298 23-23 0-6.081-2.364-11.606-6.219-15.719z" style="opacity:.1"/>
 <path d="m31.25 2.375c8.615 3.154 14.75 11.417 14.75 21.13 0 12.426-10.07 22.5-22.5 22.5-9.708 0-17.971-6.135-21.12-14.75a23 23 0 0 0 44.875 -7 23 23 0 0 0 -16 -21.875z" style="opacity:.2"/>
 <path d="m24 1c12.703 0 23 10.297 23 23s-10.297 23-23 23-23-10.297-23-23 10.297-23 23-23z" style="fill:url(#linearGradient3764)"/>
 <path d="m40.03 7.531c3.712 4.084 5.969 9.514 5.969 15.469 0 12.703-10.297 23-23 23-5.954 0-11.384-2.256-15.469-5.969 4.178 4.291 10.01 6.969 16.469 6.969 12.703 0 23-10.298 23-23 0-6.462-2.677-12.291-6.969-16.469z" style="opacity:.1"/>
 <path d="m25 9-3.0137 8.6113c-0.44413 0.18223-0.87742 0.39113-1.2852 0.65234l-5.7012-3.2637 3.2578 5.6934c-0.26236 0.41079-0.47005 0.84742-0.65234 1.2949l-8.6055 3.0117 8.6133 3.0137c0.18211 0.44346 0.38954 0.87799 0.65039 1.2852l-3.2637 5.7012 5.6934-3.2578c0.41079 0.26236 0.84742 0.47003 1.2949 0.65234l3.0117 8.6055 3.0156-8.6133c0.44346-0.18209 0.87604-0.38954 1.2832-0.65039l5.7012 3.2637-3.2578-5.6934c0.26203-0.41027 0.47018-0.84803 0.65234-1.2949l8.6055-3.0117-8.6113-3.0137c-0.18225-0.44413-0.39113-0.87742-0.65234-1.2852l3.2637-5.7012-5.6934 3.2578c-0.41079-0.26236-0.84742-0.47003-1.2949-0.65234zm0 11c2.7614 0 5 2.2386 5 5s-2.2386 5-5 5-5-2.2386-5-5 2.2386-5 5-5zm0 2a3 3 0 0 0 -3 3 3 3 0 0 0 3 3 3 3 0 0 0 3 -3 3 3 0 0 0 -3 -3z" style="opacity:.1"/>
 <path d="m24 8-3.5 10 5.5-0.9994zm6 12.5 1 5.5003l9-2.0003zm-22 3.5 9.9997 3.5-0.9994-5.4997zm19.5 6-5.4997 1.0003 2 8.9997z" style="fill:#48a0e4"/>
 <circle cx="24" cy="24" r="3" style="fill:#0a2d56"/>
 <path d="m24 8v10h3.5zm-6 12.5-10 3.5h10zm12 3.5v3.5l10-3.5zm-9.5 6 3.4997 10 3e-4 -10z" style="fill:#6ec3f0"/>
 <path d="m14 14 3.2578 5.6931c-0.82147 1.2862-1.2594 2.7805-1.2578 4.3066 0.0016 1.5241 0.44157 3.0155 1.2637 4.2988l-3.2637 5.7014 5.6934-3.2581c1.2862 0.82147 2.7805 1.2596 4.3066 1.2578 1.5241-0.0018 3.0155-0.44157 4.2988-1.2637l5.7012 3.2639-3.2578-5.6936c0.82147-1.2862 1.2594-2.7805 1.2578-4.3066-0.001599-1.5241-0.44157-3.0155-1.2637-4.2988l3.2637-5.7009-5.6934 3.2575c-1.2862-0.82147-2.7805-1.2596-4.3066-1.2578-1.5241 0.0018-3.0155 0.44157-4.2988 1.2637zm10 4.9997c2.7614 0 5 2.2386 5 5s-2.2386 5-5 5-5-2.2386-5-5 2.2386-5 5-5z" style="fill:#1867c6"/>
</svg>

<svg viewBox="0 0 48 48" xmlns="http://www.w3.org/2000/svg">
  <defs>
    <linearGradient id="a" x1="1" x2="47" gradientTransform="rotate(-90 24 24)" gradientUnits="userSpaceOnUse">
      <stop offset="0" stop-color="#d5edf3"/>
      <stop offset="1" stop-color="#e5f4f7"/>
    </linearGradient>
  </defs>
  <path d="M36.31 5c5.859 4.062 9.688 10.831 9.688 18.5 0 12.426-10.07 22.5-22.5 22.5-7.669 0-14.438-3.828-18.5-9.688a23.24 23.24 0 0 0 3.781 4.969 22.923 22.923 0 0 0 15.469 5.969c12.703 0 23-10.298 23-23a22.92 22.92 0 0 0-5.969-15.469A23.216 23.216 0 0 0 36.31 5zm4.969 3.781A22.911 22.911 0 0 1 47.498 24.5c0 12.703-10.297 23-23 23a22.909 22.909 0 0 1-15.719-6.219C12.939 45.425 18.662 48 24.998 48c12.703 0 23-10.298 23-23 0-6.335-2.575-12.06-6.719-16.219z" opacity=".05"/>
  <path d="M41.28 8.781a22.923 22.923 0 0 1 5.969 15.469c0 12.703-10.297 23-23 23A22.92 22.92 0 0 1 8.78 41.281 22.911 22.911 0 0 0 24.499 47.5c12.703 0 23-10.298 23-23A22.909 22.909 0 0 0 41.28 8.781z" opacity=".1"/>
  <path d="M31.25 2.375C39.865 5.529 46 13.792 46 23.505c0 12.426-10.07 22.5-22.5 22.5-9.708 0-17.971-6.135-21.12-14.75a23 23 0 0 0 44.875-7 23 23 0 0 0-16-21.875z" opacity=".2"/>
  <path d="M24 1c12.703 0 23 10.297 23 23S36.703 47 24 47 1 36.703 1 24 11.297 1 24 1z" fill="url(#a)"/>
  <path d="M40.03 7.531A22.922 22.922 0 0 1 45.999 23c0 12.703-10.297 23-23 23A22.92 22.92 0 0 1 7.53 40.031C11.708 44.322 17.54 47 23.999 47c12.703 0 23-10.298 23-23 0-6.462-2.677-12.291-6.969-16.469z" opacity=".1"/>
  <path d="M25 9l-3.014 8.611a7.986 7.986 0 0 0-1.285.653L15 15l3.258 5.693c-.263.411-.47.848-.653 1.295L9 25l8.613 3.014a8 8 0 0 0 .65 1.285L15 35l5.693-3.258c.411.263.848.47 1.295.653L25 41l3.015-8.613c.444-.182.876-.39 1.284-.65l5.7 3.263-3.257-5.693c.262-.41.47-.848.652-1.295L41 25l-8.611-3.014a7.988 7.988 0 0 0-.653-1.285L35 15l-5.693 3.258a7.98 7.98 0 0 0-1.295-.653zm0 11a5 5 0 1 1 0 10 5 5 0 0 1 0-10zm0 2a3 3 0 0 0-3 3 3 3 0 0 0 3 3 3 3 0 0 0 3-3 3 3 0 0 0-3-3z" opacity=".1"/>
  <path d="M24 8l-3.5 10 5.5-1zm6 12.5l1 5.5 9-2zM8 24l10 3.5-1-5.5zm19.5 6L22 31l2 9z" fill="#48a0e4"/>
  <circle cx="24" cy="24" r="3" fill="#0a2d56"/>
  <path d="M24 8v10h3.5zm-6 12.5L8 24h10zM30 24v3.5L40 24zm-9.5 6L24 40V30z" fill="#6ec3f0"/>
  <path d="M14 14l3.258 5.693A7.987 7.987 0 0 0 16 24a7.986 7.986 0 0 0 1.264 4.299L14 33.998l5.693-3.257A7.985 7.985 0 0 0 24 32a7.988 7.988 0 0 0 4.299-1.264L34 34l-3.258-5.694A7.987 7.987 0 0 0 32 24a7.986 7.986 0 0 0-1.264-4.3L34 14l-5.693 3.257A7.985 7.985 0 0 0 24 16a7.988 7.988 0 0 0-4.299 1.263zm10 5a5 5 0 1 1 0 10 5 5 0 0 1 0-10z" fill="#1867c6"/>
</svg>
